X:240
T: Stranger
M: 4/4
L: 1/8
S: Luke O'Malley vol 1
Z: B.Black
R: hornpipe
K: Dmix
dc | B2 (3BAG A2 (3ABc | dcAF G2 FG | AFDE FAGE |\
DEFG A2 dc |
B2 (3BAG A2 (3ABc | dcAF G2 FG | AFDE FAGE |1\
D2 DC D2 dc :|
|2 D2 DC D2 FG || ABde f2 ef | dcAF G2 FG |\
ABde f2 ef |
gfef d2 fg | afge dfec | dcAF G2 FG | AFDE FAGE |1\
D2 (3DED D2 FG :|
|2 D2 DC D2 z4 ||
